X:1
T:Waltz in A Minor
T:Waltz in A Minor
T:Op. 91a, No. 9 (D.924)
T:Franz Schubert
T:Public Domain (PianoXML typeset)
C:Franz Schubert
Z:Public Domain (PianoXML typeset)
%%score { ( 1 3 ) | 2 }
L:1/8
Q:1/4=100
M:3/4
K:C
V:1 treble nm="Piano" snm="Pno."
V:3 treble 
V:2 bass 
V:1
"^Moderato"!mf! !>!.[ce]2 .[Be].[Be] .[Ae]2 | !>!.[fa]2 .[ea].[ea] .[da]2 | %2
 !>!.[ce]2 .[Be]2 .[Ae]2 | !>!.[^Ge]2 .[^Fe]2 .[Ee]2 |!p! !>!.[^ce]2 .[Ac].[Ac] .[EA]2 | %5
 !>!.[ea]2 .[^ce].[ce] .[Ac]2 | .[^ce]2 .[Bd]2 .[EB]2 | [^CA]4 z2 :: %8
!f! !>!.[e=g]2 .[dg].[dg] .[cg]2 | .[Bf]2 .[Af]2 f2 | !>!.[de]2 .[ce].[ce] .[Be]2 | %11
 .[cea]2 [e^gb]2 .[eac']2 |!8va(! !>!.[e'=g']2 .[d'g'].[d'g'] .[c'g']2 | %13
 !>!.[f'a']2"_cresc." .[e'a'].[e'a'] .[d'a']2 | !>!.[d'b']2 .[d'a']2 .[d'g']2 | %15
!f! [c'c'']4!8va)! z2 :| %16
V:2
 A,,2 [E,A,C]2 [E,A,C]2 | A,,2 [F,A,D]2 [F,A,D]2 | A,,2 [E,A,C]2 [E,A,C]2 | %3
 E,,2 [E,B,D]2 [E,B,D]2 | A,,2 [E,A,^C]2 [E,A,C]2 | ^C,2 [E,A,^C]2 [E,A,^C]2 | %6
 E,,2 [E,^G,D]2 [E,G,D]2 | A,,2 [E,A,^C]2 [E,A,^C]2 :: =C,2 [G,CE]2 [G,CE]2 | %9
 D,2 [G,B,F]2 [G,B,F]2 | E,,2 [E,^G,D]2 [E,G,D]2 | A,,2 [E,A,C]2 [E,A,C]2 | C,2 [G,CE]2 [G,CE]2 | %13
 F,,2 [F,A,D]2 [F,A,D]2 | G,,2 [E,G,B,D]2 [E,G,B,D]2 | C,2 [G,CE]2 z2 :| %16
V:3
 x6 | x6 | x6 | x6 | x6 | x6 | x6 | x6 :: x6 | x4 (Gd) | x6 | x6 |!8va(! x6 | x6 | x6 | %15
 x4!8va)! x2 :| %16

